icons/drag-move-2-fill.svg

<svg xmlns="http://www.w3.org/2000/svg" viewBox="0 0 24 24">
    <g>
        <path fill="none" d="M0 0h24v24H0z"/>
        <path d="M18 11V8l4 4-4 4v-3h-5v5h3l-4 4-4-4h3v-5H6v3l-4-4 4-4v3h5V6H8l4-4 4 4h-3v5z"/>
    </g>
</svg>

<svg viewBox="0 0 24 24" xmlns="http://www.w3.org/2000/svg"><path d="M18 11V8L22 12L18 16V13H13V18H16L12 22L8 18H11V13H6V16L2 12L6 8V11H11V6H8L12 2L16 6H13V11H18Z"/></svg>
